!!!COM: Beethoven
!!!OTL: 7 Variations on a Quartet by Winter
!!!Variation: Variation 4 b
**function	**harm	**kern	**kern
*	*	*clefF4	*clefG2
*	*	*k[b-]	*k[b-]
*M2/4	*M2/4	*M2/4	*M2/4
*F:	*F:	*F:	*F:
4T	4I	8F'	[4cc
.	.	8r	.
=205	=205	=205	=205
2T	2I	(8FL 8A	24ccLL]
.	.	.	24a
.	.	.	24b-J
.	.	8CJ	24ccL
.	.	.	24dd
.	.	.	24eeJJ
.	.	8FL 8A	24ffLL
.	.	.	24ee
.	.	.	24ddJ
.	.	8CJ	24ccL
.	.	.	24b-
.	.	.	24aJJ)
=206	=206	=206	=206
4T	4V7b	8EL 8G	(24b-LL
.	.	.	24a
.	.	.	24b-J
.	.	8CJ	24ccL
.	.	.	24b
.	.	.	24ccJJ
4T	4I	8FL 8A	24aLL
.	.	.	24g#
.	.	.	24aJ
.	.	8CJ)	24ccL
.	.	.	24b
.	.	.	24ccJJ)
=207	=207	=207	=207
8T	8V7c	(8GL 8B-	(24gLL
.	.	.	24b
.	.	.	24ccJ
8T	8Ib	8AJ 8c	24fL
.	.	.	24b
.	.	.	24ccJJ
8T	8V7d	8B-L 8d-	24eLL
.	.	.	24b
.	.	.	24ccJ
8T	8Ib	8AJ 8c	24fL
.	.	.	24b
.	.	.	24ccJJ)
=208	=208	=208	=208
4T	4ii	8GL 8B-	(4g
.	.	8FJ 8A	.
4T	4V	8EL 8G	[4cc
.	.	8CJ) 8E	.
=209	=209	=209	=209
2T	2I	(8FL 8A	24ccLL]
.	.	.	24a
.	.	.	24b-J
.	.	8CJ	24ccL
.	.	.	24dd
.	.	.	24eeJJ
.	.	8FL 8A	24ffLL
.	.	.	24ee
.	.	.	24ddJ
.	.	8CJ	24ccL
.	.	.	24b-
.	.	.	24aJJ)
=210	=210	=210	=210
4T	4V7b	8EL 8G	(24b-LL
.	.	.	24a
.	.	.	24b-J
.	.	8CJ	24ggL
.	.	.	24ff#
.	.	.	24ggJJ
4T	4I	8FL 8A	24aLL
.	.	.	24g#
.	.	.	24aJ
.	.	8CJ)	24ffL
.	.	.	24ee
.	.	.	24ffJJ)
=211	=211	=211	=211
8P	8ii	8GL 8c	(24gLL
.	.	.	24f#
.	.	.	24gJ
8P	8V	8CJ	24eeL
.	.	.	24dd#
.	.	.	24eeJJ
4P	4vii7d/V	8A-L 8B	24fLL
.	.	.	24e
.	.	.	24fJ
.	.	8CJ	24ddL
.	.	.	24cc#
.	.	.	24ddJJ)
=212	=212	=212	=212
4D	4Cc/V	8GL 8c	24eLL
.	.	.	24d#
.	.	.	24eJ
.	.	8CJ	24ccL
.	.	.	24b
.	.	.	24ccJJ
4D	4V7/V	8GL 8c	24fLL
.	.	.	24cc#
.	.	.	24ddJ
.	.	8CJ	24gL
.	.	.	24dd#
.	.	.	24eeJJ
=213	=213	=213	=213
4D	4Vb	8EL 8G 8c	24ccLL
.	.	.	24b
.	.	.	24ccJ
.	.	8CJ	24ggL
.	.	.	24ff#
.	.	.	24ggJJ
4D	4V7b/V	8DL 8F 8B	24bLL
.	.	.	24a#
.	.	.	24bJ
.	.	8CJ	24ggL
.	.	.	24ff#
.	.	.	24ggJJ
=214	=214	=214	=214
4D	4Vb	8EL 8G 8c	24eLL
.	.	.	24d#
.	.	.	24eJ
.	.	8CJ	24ccL
.	.	.	24b
.	.	.	24ccJJ
4D	4V7b/V	8GL 8c	24fLL
.	.	.	24cc#
.	.	.	24ddJ
.	.	8CJ	24gL
.	.	.	24dd#
.	.	.	24eeJJ
=215	=215	=215	=215
4D	4Vb	8EL 8G 8c	24ccLL
.	.	.	24b
.	.	.	24ccJ
.	.	8CJ	24ggL
.	.	.	24ff#
.	.	.	24ggJJ
4D	4V7b/V	8DL 8F 8B	24bLL
.	.	.	24a#
.	.	.	24bJ
.	.	8CJ	24ggL
.	.	.	24ff#
.	.	.	24ggJJ
=216	=216	=216	=216
4D	4V	4C; 4E; 4G; 4c;	4cc;
*-	*-	*-	*-
